X: 42797
T: Whitestrand Sling
R: reel
M: 4/4
K: Gdorian
|:cAFG A2 BA|GEBE cEBE|GABc B2 cB|AGFE CFF[GB]:|
|:FGAB GCEC|GCEC ACEF|GABc B2 cB|AGFE CFAF:|
|:eA (3AAA eAfA|eAfA ecdc|BE (3EEE BEcE|BE (3EEE BdcB|
eA (3AAA eAfA|eAfA ecdc|1 BE (3EEE BEcE|dBGB AFGB:|2 cFAc BEGB|ADFA GCEG||

